X: 68
T:Downfall of Paris,bass part. JNu.38
M:2/4
Q:100
S:James Nuttall MS,c1830,Rossendale,East Lancs.
O:England
A:East Lancashire
Z:vmp.Chris Partington
K:D
"thirdo,read as bass clef"B2B,2 B2B,2|B4z4|f2ff f2ff|f4z4|!
B2BB B2BB|B4z4|f2F2 f2F2|f4z4|!
B4B4|B4z4|f4f4|f4z4|!
B4B,4|B4B,4|E2EE F2F2|B2B2B2z2:|!
|:B8|B4B4|[F4f4][F4f4]|[F4f4][F4f4]|!
f8|f4f4|B4B4|B4B4|!
B2 B,2 B2B,2|B2 B,2 B2B,2|f2F2 f2F2|f2F2 f2F2|!
B4B,4|B4B,4|E2EE F2FF|B2B,2B,2z2:|!
|:B2B2 B2B2|B2B2B4|B2BB f2ff|g2B2 f2z2|!
B2B2B4|B2B2 B2Bc|d2de f2F2|B2B2B2z2:|!
|:.f4.f4|.f4.F4|.f4.f4|.f4.F4|!
BBBB BBBB|B2BB B2B2|d2e2f2F2|Bdfd B2z2:|]
